icons/rust.svg

<svg width="16" height="16" viewBox="0 0 16 16" fill="none" xmlns="http://www.w3.org/2000/svg">
<path d="M14 10.49L13.26 9.09C13.26 9.09 13.26 9.04 13.26 9.01L14.5 8L13.28 7C13.28 7 13.28 7 13.28 6.92L14 5.51L12.49 5H12.44L12.6 3.4L11 3.56V3.51L10.49 2L9.09 2.74H9L8 1.5L7 2.72H6.91L5.51 2L5 3.51V3.56L3.4 3.4L3.56 5H3.51L2 5.51L2.74 6.91C2.74 6.91 2.74 6.91 2.74 6.99L1.5 8L2.72 9C2.72 9 2.72 9.05 2.72 9.08L2 10.49L3.51 11L3.56 11.06L3.4 12.6L5 12.44L5.06 12.49L5.51 14L6.91 13.26H7L8 14.5L9 13.28H9.08L10.48 14.02L11 12.49L11.06 12.44L12.64 12.6L12.44 11L12.49 10.94L14 10.49ZM3.62 8C3.61956 7.44522 3.72477 6.89543 3.93 6.38H4.75V10H4.13C3.79824 9.38537 3.62308 8.69845 3.62 8ZM8.42 7.59H6.78V6.38H8.41C8.49598 6.36892 8.58333 6.3763 8.66623 6.40164C8.74913 6.42697 8.82568 6.46969 8.89078 6.52694C8.95588 6.58418 9.00802 6.65465 9.04374 6.73363C9.07947 6.81262 9.09794 6.89831 9.09794 6.985C9.09794 7.07169 9.07947 7.15738 9.04374 7.23637C9.00802 7.31535 8.95588 7.38582 8.89078 7.44306C8.82568 7.50031 8.74913 7.54303 8.66623 7.56836C8.58333 7.5937 8.49598 7.60108 8.41 7.59H8.42ZM6.78 10V8.81H8C8 8.81 9 8.81 9 10.03C9 10 9 10.5147 9 10.5147C9 10.5 8.9921 10.8131 9.10687 10.9308C9.30029 11.1291 9.36175 11.1384 9.51652 11.1937C9.6713 11.249 9.73438 11.25 10 11.25H10.89C10.0911 11.9766 9.04992 12.3792 7.97 12.3792C6.89008 12.3792 5.84894 11.9766 5.05 11.25H7.73V10H6.78ZM11.88 10C11.54 10 10.88 9.81 10.88 9.2C10.8733 9.05911 10.8369 8.92123 10.7731 8.79542C10.7093 8.6696 10.6197 8.5587 10.51 8.47C10.8107 8.25325 11.039 7.95071 11.1649 7.60202C11.2907 7.25334 11.3083 6.87476 11.2154 6.5159C11.1224 6.15703 10.9232 5.83462 10.6439 5.59089C10.3646 5.34716 10.0181 5.19349 9.65 5.15H4.68C5.26034 4.46707 6.03662 3.97907 6.90363 3.75217C7.77065 3.52526 8.68646 3.57041 9.52694 3.8815C10.3674 4.19259 11.0919 4.75458 11.6023 5.49128C12.1126 6.22799 12.3841 7.1038 12.38 8C12.3784 8.6974 12.2068 9.38388 11.88 10Z" fill="#D87A35"/>
</svg>

<svg xmlns="http://www.w3.org/2000/svg" width="16" height="16" fill="none"><path fill="#D87A35" d="m14 10.49-.74-1.4v-.08L14.5 8l-1.22-1v-.08L14 5.51 12.49 5h-.05l.16-1.6-1.6.16v-.05L10.49 2l-1.4.74H9L8 1.5 7 2.72h-.09L5.51 2 5 3.51v.05L3.4 3.4 3.56 5h-.05L2 5.51l.74 1.4v.08L1.5 8l1.22 1v.08L2 10.49l1.51.51.05.06-.16 1.54 1.6-.16.06.05.45 1.51 1.4-.74H7l1 1.24 1-1.22h.08l1.4.74.52-1.53.06-.05 1.58.16-.2-1.6.05-.06 1.51-.45ZM3.62 8c0-.555.105-1.105.31-1.62h.82V10h-.62a4.25 4.25 0 0 1-.51-2Zm4.8-.41H6.78V6.38h1.63a.61.61 0 1 1 0 1.21h.01ZM6.78 10V8.81H8s1 0 1 1.22v.485c0-.015-.008.298.107.416.193.198.255.207.41.263.154.055.217.056.483.056h.89a4.34 4.34 0 0 1-5.84 0h2.68V10h-.95Zm5.1 0c-.34 0-1-.19-1-.8a1 1 0 0 0-.37-.73 1.84 1.84 0 0 0-.86-3.32H4.68A4.37 4.37 0 0 1 12.38 8a4.29 4.29 0 0 1-.5 2Z"/></svg>
